X:258
%%etbk:tnset id:314,pos:1,rep:3x,ant:
%%etbk:wsite http://www.thesession.org/tunes/display/770
%%etbk:color #efebd6
%%etbk:pldat 2016-05-30T19:26,2016-04-12T16:52,2016-03-24T16:16,2016-03-23T16:25,2016-03-20T10:04,2016-03-17T17:24,2016-03-16T17:03,2016-02-08T18:38,2016-01-25T19:15,2016-01-20T17:25,2016-01-13T16:59,2016-01-12T18:00,2016-01-02T15:02,2015-12-29T16:48,2015-12-28T17:29,2015-12-23T17:47,2014-12-29T17:19,2014-12-17T18:51,2014-11-26T16:20,2014-05-19T19:26,2014-04-30T16:24,2014-04-06T16:28,2014-03-26T17:24,2014-03-25T17:17,2014-03-18T17:31,2014-03-16T17:22,2014-03-14T18:12,2014-02-09T13:01,2013-12-11T18:53,2013-12-07T17:41,2013-11-21T18:38,2013-11-16T14:49,2013-11-13T16:43,2013-11-12T19:13,2013-10-15T18:58,2013-10-13T16:45,2013-10-11T18:57,2013-10-10T19:35,2013-10-08T17:22,2013-10-05T16:13,2013-10-01T18:59,2013-09-27T17:43,2013-05-06T18:09,2013-05-01T17:39
T: Palm Sunday
Z: Piano Box Version by Martin Fleischmann
H: Created 2013-02-19 /  Last Modified 2015-12-22
M: 6/8
L: 1/8
R: jig
K: Ador
|: "am""A-Drone"!3!AGE !2!GGE | !2!GGE !2!GGE | !3!A2!4!B !3!c2!4!d | !2!eed !2!efg |
!2!e!4!g!2!e !1!!4!d2!1!A | !2!B!1!A!1!G !2!Bcd | !5!edc !2!B!1!A!1!G | !2!BB!1!A A3:|
|: "am" "A-Drone"!5!a2a !2!ede | !4!aba !4!ag!2!f | "G"!4!g!3!g!4!g !4!gfe | !1!d!2!B!1!G !1!G!2!B!1!d |
"am"!2!e!4!g!2!e !1!!4!d2!1!A | !2!B!1!A!1!G !2!Bcd | !5!edc !2!B!1!A!1!G | !2!BB!1!A A3:|


